panels/wacom/wacom-tablet-cintiq.svg

<?xml version="1.0" encoding="UTF-8" standalone="no"?>
<!-- Created with Inkscape (http://www.inkscape.org/) -->

<svg
   id="svg86858"
   version="1.1"
   inkscape:version="1.3 (0e150ed6c4, 2023-07-21)"
   width="117.00018"
   height="91.995674"
   sodipodi:docname="wacom-tablet-cintiq.svg"
   xmlns:inkscape="http://www.inkscape.org/namespaces/inkscape"
   xmlns:sodipodi="http://sodipodi.sourceforge.net/DTD/sodipodi-0.dtd"
   xmlns="http://www.w3.org/2000/svg"
   xmlns:svg="http://www.w3.org/2000/svg"
   xmlns:rdf="http://www.w3.org/1999/02/22-rdf-syntax-ns#"
   xmlns:cc="http://creativecommons.org/ns#"
   xmlns:dc="http://purl.org/dc/elements/1.1/">
  <metadata
     id="metadata86864">
    <rdf:RDF>
      <cc:Work
         rdf:about="">
        <dc:format>image/svg+xml</dc:format>
        <dc:type
           rdf:resource="http://purl.org/dc/dcmitype/StillImage" />
        <dc:title />
      </cc:Work>
    </rdf:RDF>
  </metadata>
  <defs
     id="defs86862">
    <inkscape:path-effect
       effect="fillet_chamfer"
       id="path-effect1"
       is_visible="true"
       lpeversion="1"
       nodesatellites_param="F,0,0,1,0,11.55315,0,1 @ F,0,0,1,0,11.55315,0,1 @ F,0,1,1,0,5.8024694,0,1 @ F,0,1,1,0,5.8024694,0,1 @ F,0,1,1,0,5.8024694,0,1 @ F,0,1,1,0,5.8024694,0,1 @ F,0,0,1,0,5.8024694,0,1 @ F,0,1,1,0,5.8024694,0,1 @ F,0,1,1,0,5.8024694,0,1 @ F,0,1,1,0,5.8024694,0,1 @ F,0,0,1,0,11.55315,0,1 @ F,0,0,1,0,11.55315,0,1"
       radius="0"
       unit="px"
       method="auto"
       mode="F"
       chamfer_steps="1"
       flexible="false"
       use_knot_distance="true"
       apply_no_radius="true"
       apply_with_radius="true"
       only_selected="false"
       hide_knots="false" />
  </defs>
  <sodipodi:namedview
     pagecolor="#ffffff"
     bordercolor="#666666"
     borderopacity="1"
     objecttolerance="10"
     gridtolerance="10"
     guidetolerance="10"
     inkscape:pageopacity="0"
     inkscape:pageshadow="2"
     inkscape:window-width="1080"
     inkscape:window-height="651"
     id="namedview86860"
     showgrid="true"
     borderlayer="true"
     inkscape:showpageshadow="false"
     inkscape:zoom="1"
     inkscape:cx="-127.5"
     inkscape:cy="-18"
     inkscape:window-x="0"
     inkscape:window-y="0"
     inkscape:window-maximized="1"
     inkscape:current-layer="svg86858"
     inkscape:snap-nodes="false"
     inkscape:snap-bbox="true"
     inkscape:pagecheckerboard="0"
     inkscape:deskcolor="#d1d1d1">
    <inkscape:grid
       type="xygrid"
       id="grid86892"
       empspacing="5"
       visible="true"
       enabled="true"
       snapvisiblegridlinesonly="true"
       originx="-3.0021704"
       originy="-2.0021639"
       spacingy="1"
       spacingx="1"
       units="px" />
  </sodipodi:namedview>
  <g
     style="display:inline;enable-background:new"
     transform="matrix(0.68936116,0,0,0.68936115,462.30735,-77.493976)"
     id="g4353-3">
    <path
       inkscape:connector-curvature="0"
       style="color:#000000;display:inline;overflow:visible;visibility:visible;fill:#d3d7cf;fill-opacity:1;fill-rule:nonzero;stroke:none;stroke-width:1.45062px;stroke-linecap:butt;stroke-linejoin:miter;stroke-miterlimit:4;stroke-dasharray:none;stroke-dashoffset:0;stroke-opacity:1;marker:none;enable-background:accumulate"
       d="m -670.76883,124.016 v 100.14446 a 11.55315,11.55315 45 0 0 11.55315,11.55315 h 13.24149 a 5.8024694,5.8024694 45 0 1 5.80247,5.80247 5.1068134,5.1068134 36.541128 0 0 5.80247,4.30005 l 8.70372,0 a 5.8024694,5.8024694 135 0 0 5.80247,-5.80247 5.1068134,5.1068134 143.45887 0 1 5.80247,-4.30005 l 55.1235,0 a 5.8024694,5.8024694 45 0 1 5.80247,5.80247 5.1068134,5.1068134 36.541128 0 0 5.80247,4.30005 h 8.61583 a 5.8024694,5.8024694 135 0 0 5.80247,-5.80247 5.1068134,5.1068134 143.45887 0 1 5.80247,-4.30005 h 14.78653 a 11.55315,11.55315 135 0 0 11.55315,-11.55315 l 0,-100.14446 a 11.55315,11.55315 45 0 0 -11.55315,-11.55315 h -146.89083 a 11.55315,11.55315 135 0 0 -11.55315,11.55315 z"
       id="rect22528"
       sodipodi:nodetypes="ccccccccccccc"
       inkscape:path-effect="#path-effect1"
       inkscape:original-d="m -670.76883,112.46285 v 123.25076 h 30.59711 v 10.10252 h 20.30866 v -10.10252 h 66.72844 v 10.10252 h 20.22077 v -10.10252 h 32.14215 V 112.46285 Z" />
    <rect
       style="color:#000000;font-variation-settings:normal;display:inline;overflow:visible;visibility:visible;opacity:1;vector-effect:none;fill:#eeeeec;fill-opacity:1;fill-rule:nonzero;stroke:none;stroke-width:1.45062px;stroke-linecap:butt;stroke-linejoin:miter;stroke-miterlimit:4;stroke-dasharray:none;stroke-dashoffset:0;stroke-opacity:1;-inkscape-stroke:none;marker:none;enable-background:accumulate;stop-color:#000000;stop-opacity:1"
       id="rect4133-4"
       width="127.65442"
       height="81.23465"
       x="-650.32605"
       y="129.81847"
       rx="4.3518553"
       ry="4.3518553" />
  </g>
</svg>

<?xml version="1.0" encoding="UTF-8" standalone="no"?>
<!-- Created with Inkscape (http://www.inkscape.org/) -->

<svg
   id="svg86858"
   version="1.1"
   inkscape:version="1.3.2 (091e20ef0f, 2023-11-25)"
   width="117.00018"
   height="91.995674"
   sodipodi:docname="wacom-tablet-cintiq.svg"
   xmlns:inkscape="http://www.inkscape.org/namespaces/inkscape"
   xmlns:sodipodi="http://sodipodi.sourceforge.net/DTD/sodipodi-0.dtd"
   xmlns="http://www.w3.org/2000/svg"
   xmlns:svg="http://www.w3.org/2000/svg"
   xmlns:rdf="http://www.w3.org/1999/02/22-rdf-syntax-ns#"
   xmlns:cc="http://creativecommons.org/ns#"
   xmlns:dc="http://purl.org/dc/elements/1.1/">
  <metadata
     id="metadata86864">
    <rdf:RDF>
      <cc:Work
         rdf:about="">
        <dc:format>image/svg+xml</dc:format>
        <dc:type
           rdf:resource="http://purl.org/dc/dcmitype/StillImage" />
        <dc:title />
      </cc:Work>
    </rdf:RDF>
  </metadata>
  <defs
     id="defs86862">
    <inkscape:path-effect
       effect="fillet_chamfer"
       id="path-effect1"
       is_visible="true"
       lpeversion="1"
       nodesatellites_param="F,0,0,1,0,11.55315,0,1 @ F,0,0,1,0,11.55315,0,1 @ F,0,1,1,0,5.8024694,0,1 @ F,0,1,1,0,5.8024694,0,1 @ F,0,1,1,0,5.8024694,0,1 @ F,0,1,1,0,5.8024694,0,1 @ F,0,0,1,0,5.8024694,0,1 @ F,0,1,1,0,5.8024694,0,1 @ F,0,1,1,0,5.8024694,0,1 @ F,0,1,1,0,5.8024694,0,1 @ F,0,0,1,0,11.55315,0,1 @ F,0,0,1,0,11.55315,0,1"
       radius="0"
       unit="px"
       method="auto"
       mode="F"
       chamfer_steps="1"
       flexible="false"
       use_knot_distance="true"
       apply_no_radius="true"
       apply_with_radius="true"
       only_selected="false"
       hide_knots="false" />
  </defs>
  <sodipodi:namedview
     pagecolor="#ffffff"
     bordercolor="#666666"
     borderopacity="1"
     objecttolerance="10"
     gridtolerance="10"
     guidetolerance="10"
     inkscape:pageopacity="0"
     inkscape:pageshadow="2"
     inkscape:window-width="1080"
     inkscape:window-height="651"
     id="namedview86860"
     showgrid="true"
     borderlayer="true"
     inkscape:showpageshadow="false"
     inkscape:zoom="4.8882625"
     inkscape:cx="8.8988674"
     inkscape:cy="31.810894"
     inkscape:window-x="0"
     inkscape:window-y="0"
     inkscape:window-maximized="1"
     inkscape:current-layer="g4353-3"
     inkscape:snap-nodes="false"
     inkscape:snap-bbox="true"
     inkscape:pagecheckerboard="0"
     inkscape:deskcolor="#d1d1d1">
    <inkscape:grid
       type="xygrid"
       id="grid86892"
       empspacing="5"
       visible="true"
       enabled="true"
       snapvisiblegridlinesonly="true"
       originx="-3.0021704"
       originy="-2.0021639"
       spacingy="1"
       spacingx="1"
       units="px" />
  </sodipodi:namedview>
  <g
     style="display:inline;enable-background:new"
     transform="matrix(0.68936116,0,0,0.68936115,462.30735,-77.493976)"
     id="g4353-3">
    <path
       id="rect22528"
       style="color:#000000;display:inline;overflow:visible;visibility:visible;fill:#d3d7cf;fill-opacity:1;fill-rule:nonzero;stroke:none;stroke-width:1.45062px;stroke-linecap:butt;stroke-linejoin:miter;stroke-miterlimit:4;stroke-dasharray:none;stroke-dashoffset:0;stroke-opacity:1;marker:none;enable-background:accumulate"
       d="M -659.21644 112.46236 A 11.55315 11.55315 0 0 0 -670.76756 124.01631 L -670.76756 224.15998 A 11.55315 11.55315 0 0 0 -659.21644 235.71393 L -645.97388 235.71393 A 5.8024694 5.8024694 0 0 1 -640.17141 241.5164 A 5.1068134 5.1068134 0 0 0 -634.36893 245.81726 L -625.66522 245.81726 A 5.8024694 5.8024694 0 0 0 -619.86275 240.01478 A 5.1068134 5.1068134 0 0 1 -614.06027 235.71393 L -558.93677 235.71393 A 5.8024694 5.8024694 0 0 1 -553.1343 241.5164 A 5.1068134 5.1068134 0 0 0 -547.33183 245.81726 L -538.71595 245.81726 A 5.8024694 5.8024694 0 0 0 -532.91347 240.01478 A 5.1068134 5.1068134 0 0 1 -527.111 235.71393 L -512.32432 235.71393 A 11.55315 11.55315 0 0 0 -500.77038 224.15998 L -500.77038 124.01631 A 11.55315 11.55315 0 0 0 -512.32432 112.46236 L -659.21644 112.46236 z M -645.97388 129.81878 L -527.02317 129.81878 C -524.61224 129.81878 -522.67131 131.75971 -522.67131 134.17063 L -522.67131 206.70156 C -522.67131 209.11248 -524.61224 211.05341 -527.02317 211.05341 L -645.97388 211.05341 C -648.38481 211.05341 -650.32574 209.11248 -650.32574 206.70156 L -650.32574 134.17063 C -650.32574 131.75971 -648.38481 129.81878 -645.97388 129.81878 z " />
  </g>
</svg>
